X: 6194
T: Carefree, The
R: slip jig
M: 9/8
K: Gmajor
B|d2 B cBA BGE|DGG GFG ABc|d2 B cBA BGE|DGE FAF G2 B|
d2 B cBA BGE|DGG GFG ABc|dcB cBA BGE|DGE FAF G2||
d|e2 c A2 e edc|d2 B G2 B dcB|c2 A F2 A cBA|BAG cBA de=f|
e2 c A2 e edc|d2 B G2 B dcB|cAF DFA cBA|B/c/dB cAF G2||

